!!!!SEGMENT: T514_Mau-w14p29m1h5m1-9.krn
!!!COM: Martinů, Bohuslav (Jan)
!!!OTL: III: Charleston: Poco a poco allegro (Tempo di Charleston)
!!!OMV: III: Charleston: Poco a poco allegro, Tempo di Charleston
!!!example: 514
!!!work: Mau-14
!!!AGN-sub: Symphonic
!!!OPR: La Revue de cuisine (The Kitchen Magazine), Suite for Small Ensemble
!!!filename: T514_Mau-w14p29m1h5m1-9.krn
**kern	**dynam	**kern	**dynam	**kern	**dynam	**kern	**dynam	**kern	**dynam	**kern	**dynam	**kern	**dynam
*grp:A	*	*grp:A	*	*grp:B	*	*grp:B	*	*grp:A	*	*grp:A	*	*grp:A	*
*part6	*	*part6	*	*part5	*	*part4	*	*part3	*	*part2	*	*part1	*
*staff7	*	*staff6	*	*staff5	*	*staff4	*	*staff3	*	*staff2	*	*staff1	*
*ICklav	*	*ICklav	*	*ICstr	*	*ICstr	*	*ICbras	*	*ICww	*	*ICww	*
*Ipiano	*	*Ipiano	*	*Icello	*	*Ivioln	*	*Itromp	*	*Ifagot	*	*Iclars	*
*I"Piano	*	*I"Piano	*	*I"Violoncello	*	*I"Violin	*	*I"Trumpet in Bb	*	*I"Bassoon	*	*I"Clarinet in Bb	*
*I'pf	*	*I'pf	*	*I'vc	*	*I'vn	*	*I'tp	*	*I'bn	*	*I'cl	*
*clefF4	*	*clefG2	*	*clefG2	*	*clefG2	*	*clefG2	*	*clefF4	*	*clefG2	*
*	*	*	*	*	*	*	*	*ITrd1c2	*	*	*	*ITrd1c2	*
*k[]	*	*k[]	*	*k[]	*	*k[]	*	*k[]	*	*k[]	*	*k[]	*
*C:	*	*C:	*	*C:	*	*C:	*	*C:	*	*C:	*	*C:	*
!!LO:TX:omd:tempo:a:t=[Tempo di Charleston]\n{[half]=109}
*M4/4	*	*M4/4	*	*M4/4	*	*M4/4	*	*M4/4	*	*M4/4	*	*M4/4	*
*met(c|)	*	*met(c|)	*	*met(c|)	*	*met(c|)	*	*met(c|)	*	*met(c|)	*	*met(c|)	*
*MM121	*	*MM121	*	*MM121	*	*MM121	*	*MM121	*	*MM121	*	*MM121	*
=49	=49	=49	=49	=49	=49	=49	=49	=49	=49	=49	=49	=49	=49
!!LO:TX:t=[Tempo di charleston [half]=109]
!	!	!	!LO:DY:ed=brack	!	!LO:DY:ed=brack	!	!LO:DY:ed=brack	!	!LO:DY:ed=brack	!	!	!	!LO:DY:ed=brack
4GGG 4GG	.	4B'^> 4d 4e 4g	p	/[2b	p	8eL	p	4b'	p	1r	.	4b'	p
.	.	.	>	.	.	8BJ	.	.	.	.	.	.	.
4GG 4D	.	4B' 4d 4e	.	.	.	8BL	.	[4g	.	.	.	[4g	.
.	.	.	.	.	.	8eJ	.	.	.	.	.	.	.
4GG 4D	.	4B' 4d 4e	.	8bL]	.	8BL	.	8g'L]	.	.	.	8g'L]	.
.	.	.	.	(8gJ	.	8BJ	.	8g'J	.	.	.	8g'J	.
4GGG 4GG	.	4B'^> 4d 4e 4g	]	8dL	<	8eL	.	/(8a#X^L	.	.	.	(8a#X^L	.
.	.	.	.	8c#XJ	[[	8BJ	.	8b'J)	.	.	.	8b'J)	.
!!LO:REH:t=5
=50	=50	=50	=50	=50	=50	=50	=50	=50	=50	=50	=50	=50	=50
4GG 4D	.	4B' 4d 4e	.	8eL)	>	8BL	.	8g'L	.	1r	.	8g'L	.
.	.	.	.	[8BJ	.	8eJ	.	(8a#XJ	.	.	.	(8a#XJ	.
4GG 4D	.	4B' 4d 4e	.	2B]	]	8BL	.	/8b'L)	.	.	.	/8b')L	.
.	.	.	.	.	.	8BJ	.	8g'J	.	.	.	8g'J	.
4GGG 4GG	.	4B'^> 4d 4e 4g	.	.	.	8eL	.	/(8a#L	.	.	.	(8a#^L	.
.	.	.	.	.	.	8BJ	.	8b'J)	.	.	.	8b'J)	.
4GG 4D	.	4B' 4d 4e	.	[4d	.	8BL	.	8g'	.	.	.	8g'	.
.	.	.	.	.	.	8eJ	.	8r	.	.	.	8r	.
=51	=51	=51	=51	=51	=51	=51	=51	=51	=51	=51	=51	=51	=51
4EE 4BB 4E	.	4d^> 4e 4g#X 4b	mf <	4d]	mf	(8fnL	mf	4b	mf	1r	.	[2b	mf
.	.	.	.	.	.	8eJ)	.	.	.	.	.	.	.
8r	.	8r	.	[2.e	.	8eL	.	\8eL	.	.	.	.	.
[8EE 8BB [8E	.	[8d^> 8e 8g# [8b	.	.	.	(8fJ	.	[8bJ	.	.	.	.	.
4EE] 4BB 4E]	.	4d'] 4e 4g# 4b]	.	.	.	8eL)	.	8bL]	.	.	.	8b]	.
.	.	.	.	.	.	8eJ	.	8g#XJ	.	.	.	[4.cc	.
4r	.	4r	[	.	.	(8fL	.	4cc	.	.	.	.	.
.	.	.	.	.	.	8eJ)	.	.	.	.	.	.	.
=52	=52	=52	=52	=52	=52	=52	=52	=52	=52	=52	=52	=52	=52
4EEE 4EE	.	4d' 4e 4g#X 4b	.	4e]	.	8eL	.	8g#XL	.	1r	.	4cc]	.
.	.	.	.	.	.	(8fJ	.	8bJ	<	.	.	.	<
*	*	*	*	*clefF4	*	*	*	*	*	*	*	*	*
8r	.	8r	.	2E	.	8eL)	.	8b	.	.	.	(4b	.
[8EE^> 8BB [8E	.	[8d^> 8e 8g# [8b	.	.	.	8eJ	.	8r	.	.	.	.	.
!	!	!	!	!	!	!	!	!LO:TUP:a	!	!	!	!LO:TUP:a	!
4EE'] 4BB 4E]	.	4d'] 4e 4g# 4b]	.	.	.	(8fL	.	6ee	.	.	.	6ee)	.
.	.	.	.	.	.	8eJ)	.	.	.	.	.	.	.
.	.	.	.	.	.	.	.	6cc#X~	.	.	.	6cc#X~	.
4r	.	4r	.	(4F#X	<	8eL	.	.	.	.	.	.	.
.	.	.	.	.	.	.	.	6cc~	[[	.	.	6cc~	[[
.	.	.	.	.	.	8dJ	.	.	.	.	.	.	.
=53	=53	=53	=53	=53	=53	=53	=53	=53	=53	=53	=53	=53	=53
/8AA' 8E 8A	.	8c#X'^>L 8g 8a	.	4G	.	8cL	.	8b'^L	.	1r	.	8b'^L	.
8r	.	8gJ	.	.	.	(8c#XJ	.	8a'J	.	.	.	8a'J	.
8r	.	8e'^>L	.	4A	.	8AL)	.	\8eL	.	.	.	8r	.
/8AA' 8E 8A	.	8c#J 8g 8a	.	.	.	8B#XJ	.	8b'^J	.	.	.	8b'^	.
4r	.	8gL	.	4A#X	[	(8c#L	.	8a'L	.	.	.	8a'	.
.	.	8eJ	.	.	.	8AJ)	.	8eJ	.	.	.	8r	.
/8AA' 8E 8A	.	8c#'^>L 8g 8a	.	[4B)	.	8B#L	.	8b'^L	.	.	.	8b'^L	.
8r	.	8gJ	.	.	.	(8c#J	.	8a'J	.	.	.	8a'J	.
=54	=54	=54	=54	=54	=54	=54	=54	=54	=54	=54	=54	=54	=54
8r	.	8eL	.	4B]	.	8AL)	.	8gL	.	1r	.	8r	.
8AA' 8E 8A	.	8c#X'^J 8g 8a	.	.	.	8B#XJ	.	8b'^J	.	.	.	8b'^	.
4r	.	4r	.	2c#X	.	(8c#XL	.	8a'L	.	.	.	8a'	.
.	.	.	.	.	.	8AJ)	.	8eJ	.	.	.	8r	.
8AA' 8E 8A	.	8c#'^ 8g 8a	.	.	.	8B#L	.	8b'^L	.	.	.	8b'^L	.
8r	.	8r	.	.	.	(8c#J	.	8a'J	.	.	.	8a'J	.
8r	sf	8r	ff	[4A	.	8AL)	.	8e'	.	.	.	4r	.
!	!	!	!LO:DY:a	!	!	!	!	!	!	!	!	!	!
(<8EE-X'>^> 8E-X	.	(8e-X^>	sf	.	.	8AJ	.	8r	.	.	.	.	.
=55	=55	=55	=55	=55	=55	=55	=55	=55	=55	=55	=55	=55	=55
!	!	!LO:TX:b:i:t=meno	!	!	!	!	!	!	!	!	!	!	!
!	!	!LO:S:n=1:note	!	!	!	!	!	!	!	!	!	!	!
!	!	!LO:TX:t=P:problem:cross-staff slur attaching to the wrong note	!	!	!	!	!	!	!	!	!	!	!
\4DD 4D)	.	4F#X< 4c 4d)	.	2A]	.	(8eL	.	/4a'	.	1r	.	[2a	.
.	.	.	.	.	.	8dJ)	.	.	.	.	.	.	.
8r	.	8r	.	.	.	8dL	.	8d'L	.	.	.	.	.
[8DD^> [8AA [8D	.	[8c^> 8d 8f#X [8a	.	.	.	(8e^>J	.	[8a^>J	.	.	.	.	.
4DD'] 4AA] 4D]	.	4c'] 4d 4f# 4a]	.	[2cn	.	8dL)	.	8a'L]	.	.	.	8a]	.
.	.	.	.	.	.	8dJ	.	8f#X'J	.	.	.	[4.b	<
4r	.	4r	.	.	.	(8eL	.	4b^	.	.	.	.	.
.	.	.	.	.	.	8dJ)	.	.	.	.	.	.	.
=56	=56	=56	=56	=56	=56	=56	=56	=56	=56	=56	=56	=56	=56
4DD' 4D	.	4c' 4d 4f#X 4b-X	.	4c]	.	8dL	.	8dL	.	1r	.	8bL]	.
.	.	.	.	.	.	(8eJ	.	[8ddJ	.	.	.	[8ddJ	.
8r	.	8r	.	(4D	<	8dL)	.	4dd_	.	.	.	4dd_	[
[8DD^> 8AA [8D	.	[8c^> 8d 8f# [8a	.	.	.	8dJ	.	.	.	.	.	.	.
!	!	!	!	!	!	!	!	!LO:TUP:a	!	!	!	!LO:TUP:a	!
4DD'] 4AA 4D]	.	4c'] 4d 4f# 4a]	.	4D#X	.	(8eL	.	6dd]	.	.	.	6dd]	.
.	.	.	.	.	.	8dJ)	.	.	.	.	.	.	.
.	.	.	.	.	.	.	.	6b~	.	.	.	6bnX~	.
4r	.	4r	.	4E)	.	8dL	.	.	.	.	.	.	.
.	.	.	.	.	.	.	.	6b-~	.	.	.	6b-~	.
.	.	.	.	.	[[	8eJ	.	.	.	.	.	.	.
=57	=57	=57	=57	=57	=57	=57	=57	=57	=57	=57	=57	=57	=57
\8FFFL 8FF	.	8A<^> 8e-X 8gL	f	(4Fn	f	(8f#XL	f	8a'^L	f	(1FF	f	8a'^L	f
8FFFJ 8FF	.	8A< 8e- 8gJ	.	.	.	8gJ)	.	8g'J	.	.	.	8g'J	.
\4FFF 4FF	.	4A< 4e- 4g	.	4G	.	8e-X'L	.	8e-L	.	.	.	8r	.
.	.	.	.	.	.	(8dJ	.	8a'^J	.	.	.	/8a'^	.
\4FFF 4FF	.	4A< 4e- 4g	.	4G#X	<	8e-L)	.	8g'L	.	.	.	8g'	.
.	.	.	.	.	.	8c'J	.	8e-J	.	.	.	8r	.
\4FFF 4FF	.	4A< 4e- 4g	.	[4A)	.	(8f#L	.	8a'^L	.	.	.	8a'^L	.
.	.	.	.	.	.	8gJ)	.	8g'J	.	.	<	8g'J	.
=58	=58	=58	=58	=58	=58	=58	=58	=58	=58	=58	=58	=58	=58
\4FFF 4FF	.	4A< 4e-X 4g	<	4A]	.	8e-X'L	<	8e-L	<	1F)	.	8r	.
.	.	.	.	.	.	(8dJ	.	8a'^J	.	.	.	/8a'^	.
\4FFF 4FF	.	4A< 4e- 4g	.	2d	[	8e-L)	.	8g'L	.	.	.	8g'	.
.	.	.	.	.	.	8c'J	.	8e-J	.	.	.	8r	.
\4FFF 4FF	.	4A< 4e- 4g	.	.	.	(8f#XL	[	8a'^L	.	.	.	8a'^L	.
.	.	.	.	.	.	8gJ)	.	8g'J	.	.	.	8g'J	.
\4FFF 4FF	.	4A< 4e- 4g	[	[4c	.	8e-	.	8e-	[	.	.	4r	.
.	.	.	.	.	.	8r	.	8r	.	.	[	.	.
=	=	=	=	=	=	=	=	=	=	=	=	=	=
*-	*-	*-	*-	*-	*-	*-	*-	*-	*-	*-	*-	*-	*-
!!!system-decoration: [(s1,s2,s3,s4,s5)][({(s6,s7)})]
!!!RDF**kern: > = above
!!!RDF**kern: < = below
!!!EED: Daniel Wright
!!!EEV: 2022/09/02
!!!EED2: Jason Lee
!!!EEV2: 2022/10/22
!!!CDT: 1890/12/08-1959/08/28
!!!CBL: Polička, Bohemia
!!!CDL: Liestal, Switzerland
!!!CNT: Czech
!!!OMD:
!!!AGN: Orchestral
!!!MCN: unknown
!!!MDT: 1930/01/05
!!!MGN: unknown
!!!MLC: Paris, France
!!!MPD: 1930
!!!MPN:
!!!ODT: 1927
!!!PDT: 1930
!!!excerpt-start-measure: 49
!!!excerpt-end-measure: 58
!!!excerpt-start-time: 0:58
!!!excerpt-end-time: 1:05
!!!EEV: 2020/01/27
!!!Suter_Work_ID: Mau-14
!!!Suter_Example_Number: 514
!!!Suter_Example_ID: Mau-14/29/1[5]1-9
!!!Premiere_Location: Paris,France
!!!Other_Tsigs: none
!!!Full_Unit_Duration: 2:43
!!!First_Publication_Year: 1930
!!!First_Public_Performance_Year: 1930
!!!Example_Total_Measures: 10
!!!Example_Timestamp_Duration: 11
!!!Example_Start_Tsig_Type: simple duple
!!!Example_Start_Tsig_Mean_Beat_Rate: 109
!!!Example_Start_Tsig_Beat_Rate: 109
!!!Example_Start_Tsig_Beat: half
!!!Example_Start_Tsig: 2/2
!!!Example_Start_Timestamp: 0:57
!!!Example_Start_Tempo_Expression: [Tempo di Charleston]
!!!Example_Start_Notated_Beat_Rate: {109}
!!!Example_Start_Notated_Beat: {half}
!!!Example_Start_Measure: 49
!!!Example_Metadata_Validated: Y
!!!Example_End_Timestamp: 1:08
!!!Example_End_Measure: 58
!!!Example_Dataset: T
!!!Editorial_Comments: No notated tempo. Example Start Notated Beat and Example Start Notated Beat Rate {half=109} calculated from recording (https://ubc-naxosmusiclibrary-com.eu1.proxy.openathens.net/catalogue/item.asp?cid=00028943366021); tempo for audio synthesis was calculated {quarter=220} using a Digital Audio Workstation (DAW). Example Start Tempo Expression [Tempo di Charleston] based on most recent notated tempo expression (SWFU, m. 43).
!!!Death_Place: Liestal,Switzerland
!!!Death_Date: 28-Aug-1959
!!!Changing_Tsig: no
!!!Birth_Place: Polička,Bohemia
!!!Birth_Date: 8-Dec-1890
!!!Audio_Example_Quarter_Note_Tempo:
!!!Audio_Example_Duration:
!!!ONB: Converted from MusicXML on 2020/01/27
